img/Client3.svg

<svg width="175" height="90" viewBox="0 0 175 90" fill="none" xmlns="http://www.w3.org/2000/svg">
<rect x="0.5" y="0.5" width="174" height="89" rx="3.5" stroke="#AFB1B8"/>
<path d="M69.3454 64.4926C69.3604 64.493 69.3752 64.4961 69.3889 64.5018C69.4026 64.5076 69.4149 64.5157 69.4251 64.5259L69.6309 64.7348C69.4712 64.9039 69.2738 65.0392 69.0522 65.1313C68.7927 65.2319 68.513 65.2805 68.2317 65.2738C67.9673 65.2788 67.7046 65.2336 67.46 65.1408C67.2394 65.0557 67.0412 64.9277 66.8787 64.7657C66.713 64.5976 66.5853 64.4006 66.5032 64.1863C66.4133 63.9474 66.3689 63.696 66.372 63.4431C66.3684 63.1886 66.4164 62.9358 66.5135 62.6976C66.6033 62.4819 66.7389 62.2849 66.9122 62.1182C67.0878 61.9547 67.2979 61.8262 67.5295 61.7407C67.7828 61.65 68.0526 61.6049 68.3243 61.6077C68.5766 61.602 68.8277 61.6432 69.0625 61.7288C69.2662 61.8104 69.4532 61.9236 69.6155 62.0636L69.4432 62.2868C69.4312 62.3025 69.4164 62.3162 69.3994 62.3271C69.3791 62.34 69.3545 62.3459 69.33 62.3438C69.3033 62.3421 69.2775 62.3339 69.2554 62.32L69.1628 62.2607L69.0342 62.1847C68.9787 62.1565 68.9211 62.1319 68.8619 62.1111C68.7856 62.0859 68.7073 62.066 68.6278 62.0517C68.5268 62.0345 68.4243 62.0266 68.3217 62.028C68.1261 62.0257 67.9319 62.0596 67.7507 62.1277C67.5817 62.1908 67.4291 62.2863 67.3031 62.4079C67.1749 62.5372 67.076 62.689 67.0125 62.8543C66.94 63.0433 66.9043 63.2426 66.907 63.4431C66.9039 63.6467 66.9396 63.8493 67.0125 64.0415C67.0752 64.2053 67.1723 64.3562 67.298 64.4855C67.4158 64.6061 67.5618 64.7003 67.725 64.7609C67.8929 64.8252 68.0731 64.8575 68.2548 64.8559C68.3598 64.8574 68.4648 64.851 68.5686 64.8369C68.7382 64.8178 68.9009 64.7634 69.0445 64.6778C69.1165 64.634 69.1844 64.5848 69.2477 64.5306C69.2741 64.5073 69.3089 64.4938 69.3454 64.4926Z" fill="#AFB1B8"/>
<path d="M75.2871 63.4428C75.2903 63.6947 75.2432 63.945 75.1482 64.1812C75.0644 64.3954 74.9323 64.5908 74.7608 64.7545C74.5892 64.9182 74.382 65.0465 74.1528 65.1309C73.6492 65.3082 73.0925 65.3082 72.589 65.1309C72.3613 65.0452 72.1554 64.9166 71.9845 64.7534C71.8131 64.5867 71.68 64.3896 71.5936 64.1741C71.4083 63.6958 71.4083 63.1731 71.5936 62.6949C71.6813 62.4792 71.8141 62.2815 71.9845 62.1131C72.1568 61.955 72.3626 61.8314 72.589 61.7499C73.0919 61.5694 73.6499 61.5694 74.1528 61.7499C74.3813 61.8355 74.588 61.9641 74.7598 62.1274C74.9292 62.2924 75.0612 62.487 75.1482 62.6996C75.2435 62.9374 75.2906 63.1893 75.2871 63.4428ZM74.747 63.4428C74.751 63.2412 74.718 63.0405 74.6492 62.8492C74.5916 62.6853 74.4979 62.5341 74.374 62.4052C74.2534 62.2832 74.1049 62.1875 73.9393 62.125C73.5734 61.9952 73.1684 61.9952 72.8024 62.125C72.6368 62.1875 72.4884 62.2832 72.3678 62.4052C72.2422 62.5334 72.1475 62.6847 72.09 62.8492C71.9591 63.2357 71.9591 63.6499 72.09 64.0364C72.148 64.2006 72.2427 64.3518 72.3678 64.4804C72.4885 64.6016 72.637 64.6965 72.8024 64.7582C73.169 64.8847 73.5728 64.8847 73.9393 64.7582C74.1048 64.6965 74.2533 64.6016 74.374 64.4804C74.4974 64.3511 74.591 64.2 74.6492 64.0364C74.7183 63.8451 74.7513 63.6443 74.747 63.4428Z" fill="#AFB1B8"/>
<path d="M79.3408 64.0651L79.3948 64.1981C79.4154 64.1506 79.4334 64.1079 79.4539 64.0651C79.4736 64.0205 79.4959 63.9769 79.5208 63.9345L80.8352 61.7289C80.8609 61.6909 80.884 61.6672 80.9098 61.6601C80.9447 61.6502 80.9813 61.6462 81.0178 61.6482H81.4062V65.2356H80.9458V62.5979C80.9458 62.5646 80.9458 62.5266 80.9458 62.4863C80.9433 62.4452 80.9433 62.4039 80.9458 62.3628L79.6237 64.5993C79.6069 64.6328 79.58 64.6611 79.5463 64.6809C79.5125 64.7007 79.4733 64.7111 79.4334 64.7109H79.3588C79.3187 64.7114 79.2794 64.7011 79.2456 64.6813C79.2118 64.6615 79.185 64.633 79.1684 64.5993L77.8078 62.3486C77.8078 62.3913 77.8078 62.4341 77.8078 62.4768C77.8078 62.5195 77.8078 62.5575 77.8078 62.5907V65.2285H77.3628V61.6482H77.7512C77.7877 61.6462 77.8243 61.6502 77.8592 61.6601C77.8911 61.6747 77.9165 61.699 77.9312 61.7289L79.2739 63.9369C79.3003 63.9777 79.3227 64.0206 79.3408 64.0651Z" fill="#AFB1B8"/>
<path d="M84.2871 63.887V65.2307H83.7727V61.6483H84.9199C85.1364 61.6445 85.3524 61.6709 85.5603 61.7267C85.7268 61.7702 85.8812 61.8463 86.013 61.9498C86.1273 62.0468 86.2154 62.1671 86.2703 62.3012C86.331 62.4473 86.3607 62.6029 86.3577 62.7594C86.36 62.9165 86.3276 63.0723 86.2625 63.2175C86.2007 63.355 86.1057 63.4776 85.9847 63.576C85.8528 63.6838 85.6976 63.7647 85.5295 63.8134C85.3292 63.8725 85.1198 63.9006 84.9096 63.8965L84.2871 63.887ZM84.2871 63.5024H84.9096C85.0448 63.504 85.1794 63.4856 85.3083 63.4478C85.4146 63.4148 85.5126 63.3623 85.5964 63.2935C85.6736 63.2278 85.7335 63.1466 85.7713 63.0561C85.8134 62.9604 85.8344 62.8579 85.833 62.7546C85.839 62.655 85.8214 62.5554 85.7814 62.4628C85.7414 62.3701 85.68 62.2866 85.6015 62.2181C85.405 62.0765 85.1582 62.0079 84.9096 62.0258H84.2871V63.5024Z" fill="#AFB1B8"/>
<path d="M91.201 65.2355H90.7946C90.7538 65.2369 90.7138 65.2252 90.6814 65.2022C90.6522 65.1799 90.6293 65.1514 90.6145 65.1191L90.2647 64.2525H88.508L88.1453 65.1191C88.132 65.1508 88.1098 65.1787 88.081 65.1999C88.0483 65.2242 88.0072 65.2368 87.9652 65.2355H87.5588L89.1021 61.6479H89.6371L91.201 65.2355ZM88.6546 63.9035H90.1053L89.4931 62.4433C89.4463 62.3335 89.4076 62.2209 89.3773 62.1062L89.3182 62.2937C89.3002 62.3507 89.2796 62.403 89.2616 62.4457L88.6546 63.9035Z" fill="#AFB1B8"/>
<path d="M93.4233 61.6646C93.4541 61.6802 93.4805 61.7022 93.5005 61.7288L95.7511 64.433C95.7511 64.3903 95.7511 64.3475 95.7511 64.3072C95.7511 64.2668 95.7511 64.2265 95.7511 64.1885V61.648H96.2115V65.2355H95.9543C95.9178 65.2365 95.8816 65.2292 95.8489 65.2141C95.8171 65.197 95.7892 65.1745 95.7666 65.1477L93.5185 62.4458C93.521 62.4869 93.521 62.5281 93.5185 62.5692C93.5185 62.6096 93.5185 62.6452 93.5185 62.6784V65.2355H93.0581V61.648H93.3308C93.3626 61.6472 93.3942 61.6529 93.4233 61.6646Z" fill="#AFB1B8"/>
<path d="M100.003 63.8085V65.2332H99.4883V63.8085L98.0659 61.6478H98.5263C98.566 61.6457 98.6052 61.6566 98.6369 61.6787C98.6649 61.7017 98.6884 61.729 98.7064 61.7594L99.5964 63.1532C99.6324 63.2126 99.6632 63.2672 99.689 63.3194C99.7147 63.3716 99.7353 63.4215 99.7533 63.4714L99.8201 63.317C99.8451 63.2606 99.8743 63.2059 99.9076 63.1532L100.785 61.7499C100.803 61.7219 100.826 61.6964 100.852 61.674C100.882 61.6494 100.922 61.6366 100.962 61.6383H101.428L100.003 63.8085Z" fill="#AFB1B8"/>
<path d="M79.0862 55.6274C79.31 55.6535 79.5363 55.6749 79.7652 55.6938C83.2358 54.2607 86.1718 51.9152 88.2062 48.9503C90.2406 45.9855 91.2832 42.5329 91.2036 39.0242L87.3788 35.4937C88.1565 39.2294 87.7927 43.0911 86.3282 46.6469C84.8636 50.2027 82.3561 53.3121 79.0862 55.6274Z" fill="#AFB1B8"/>
<path d="M77.7205 55.4632L77.8233 55.4822C81.3176 53.1751 83.9816 49.9535 85.471 46.2339C86.9604 42.5143 87.2065 38.4678 86.1777 34.6177L80.7299 29.5891C82.9333 33.7225 83.8203 38.3483 83.2876 42.9287C82.7548 47.5091 80.8243 51.8557 77.7205 55.4632Z" fill="#AFB1B8"/>
<path d="M96.1962 43.1697C95.2706 47.025 93.0228 50.502 89.7864 53.0844C88.8412 53.8428 87.8217 54.5184 86.741 55.1025C89.3763 54.3875 91.7986 53.1235 93.821 51.4077C95.8434 49.692 97.4119 47.5705 98.4056 45.2068L96.1962 43.1697Z" fill="#AFB1B8"/>
<path d="M95.3292 42.6021L92.1835 39.6985C92.1233 43.009 91.1037 46.2442 89.2306 49.0679C87.3575 51.8915 84.6993 54.2006 81.5322 55.7551H81.5477C82.2534 55.7549 82.9586 55.716 83.6594 55.6388C86.6192 54.5237 89.2339 52.7496 91.2702 50.4748C93.3064 48.2001 94.7009 45.4954 95.3292 42.6021Z" fill="#AFB1B8"/>
<path d="M78.1757 27.4688L74.4229 24C71.0681 25.1966 68.1828 27.3003 66.1446 30.0357C64.1065 32.771 63.0105 36.0106 63 39.3304V39.3304C63.0126 42.9988 64.3502 46.5585 66.8012 49.4461C69.2521 52.3337 72.6764 54.3844 76.5321 55.2734C79.974 51.4027 81.9892 46.6197 82.2847 41.6194C82.5803 36.6192 81.1409 31.6622 78.1757 27.4688Z" fill="#AFB1B8"/>
<path d="M104 42.0677C103.986 37.7154 102.107 33.545 98.7732 30.4674C95.4391 27.3899 90.921 25.6554 86.2059 25.6428C84.0271 25.6407 81.8668 26.0119 79.8347 26.7373L102.812 47.9463C103.598 46.0715 104.001 44.0782 104 42.0677Z" fill="#AFB1B8"/>
</svg>

<svg width="175" height="90" fill="none" xmlns="http://www.w3.org/2000/svg"><rect x=".5" y=".5" width="174" height="89" rx="3.5" stroke="#AFB1B8"/><path d="M69.345 64.493a.114.114 0 01.08.033l.206.209c-.16.169-.357.304-.579.396-.26.1-.539.15-.82.143a2.068 2.068 0 01-.772-.133 1.678 1.678 0 01-.581-.375 1.685 1.685 0 01-.376-.58 2.037 2.037 0 01-.131-.743 1.901 1.901 0 01.141-.745c.09-.216.226-.413.4-.58a1.84 1.84 0 01.617-.377 2.29 2.29 0 01.794-.133c.253-.006.504.035.739.12.203.082.39.196.552.336l-.172.223a.172.172 0 01-.044.04.112.112 0 01-.069.017.16.16 0 01-.075-.024l-.092-.06-.129-.075a1.418 1.418 0 00-.406-.133 1.687 1.687 0 00-.306-.024 1.573 1.573 0 00-.571.1 1.297 1.297 0 00-.448.28c-.128.13-.227.281-.29.446a1.583 1.583 0 00-.106.59c-.003.203.033.405.106.597.062.164.16.315.285.445.118.12.264.214.427.275.168.064.348.097.53.095.105.001.21-.005.314-.02.17-.018.332-.073.475-.158.073-.044.14-.093.204-.147a.156.156 0 01.097-.038zM75.287 63.443c.003.252-.044.502-.139.738a1.6 1.6 0 01-.387.573 1.762 1.762 0 01-.608.377 2.365 2.365 0 01-1.564 0 1.684 1.684 0 01-.995-.957 2.037 2.037 0 010-1.48c.087-.215.22-.413.39-.58a1.79 1.79 0 01.605-.364c.503-.18 1.06-.18 1.564 0 .228.086.435.214.607.377.17.165.301.36.388.573.096.237.143.49.14.743zm-.54 0a1.655 1.655 0 00-.098-.594 1.23 1.23 0 00-.275-.444 1.212 1.212 0 00-.435-.28c-.366-.13-.77-.13-1.137 0a1.202 1.202 0 00-.712.724c-.13.387-.13.8 0 1.187.058.165.153.316.278.444.12.122.269.216.434.278.367.127.77.127 1.137 0 .166-.061.314-.156.435-.278.123-.129.217-.28.275-.444.07-.19.102-.392.098-.593zM79.34 64.065l.055.133c.02-.047.038-.09.059-.133.02-.044.042-.088.067-.13l1.314-2.206c.026-.038.049-.062.075-.069a.33.33 0 01.108-.012h.388v3.588h-.46v-2.638-.112a1.018 1.018 0 010-.123l-1.322 2.236a.198.198 0 01-.078.082.222.222 0 01-.113.03h-.074c-.04 0-.08-.01-.113-.03a.196.196 0 01-.078-.082l-1.36-2.25v2.879h-.445v-3.58h.388a.33.33 0 01.108.012.148.148 0 01.072.069l1.343 2.208a.77.77 0 01.067.128zM84.287 63.887v1.344h-.514v-3.583h1.147c.216-.004.432.023.64.079.167.043.321.12.453.223a.918.918 0 01.257.351c.061.146.09.302.088.458a1.08 1.08 0 01-.096.459.982.982 0 01-.277.358 1.284 1.284 0 01-.456.237c-.2.06-.41.088-.62.084l-.622-.01zm0-.385h.623c.135.002.27-.016.398-.054a.852.852 0 00.288-.154.633.633 0 00.175-.238.723.723 0 00.062-.301.638.638 0 00-.052-.292.686.686 0 00-.18-.245 1.057 1.057 0 00-.691-.192h-.623v1.476zM91.201 65.236h-.406a.185.185 0 01-.114-.034.22.22 0 01-.066-.083l-.35-.867h-1.757l-.363.867a.194.194 0 01-.064.08.185.185 0 01-.116.037h-.406l1.543-3.588h.535l1.564 3.587zm-2.546-1.333h1.45l-.612-1.46a2.466 2.466 0 01-.116-.337l-.059.188c-.018.057-.038.109-.056.152l-.607 1.458zM93.423 61.665c.031.015.058.037.078.064l2.25 2.704v-.126-2.659h.46v3.587h-.257a.236.236 0 01-.105-.02.282.282 0 01-.082-.067l-2.248-2.702c.002.04.002.082 0 .123v2.666h-.46v-3.587h.272c.032 0 .063.005.092.017zM100.003 63.809v1.424h-.515v-1.425l-1.422-2.16h.46a.177.177 0 01.11.03c.029.024.052.051.07.081l.89 1.394a1.466 1.466 0 01.157.318l.067-.154a1.27 1.27 0 01.088-.164l.877-1.403a.354.354 0 01.067-.076.164.164 0 01.11-.036h.466l-1.425 2.17zM79.086 55.627c.224.026.45.048.68.067 3.47-1.433 6.406-3.779 8.44-6.744 2.035-2.965 3.077-6.417 2.998-9.926l-3.825-3.53a19.02 19.02 0 01-1.05 11.153c-1.465 3.556-3.973 6.665-7.243 8.98z" fill="#AFB1B8"/><path d="M77.72 55.463l.103.02c3.495-2.308 6.159-5.53 7.648-9.25a18.377 18.377 0 00.707-11.615l-5.448-5.029c2.203 4.133 3.09 8.76 2.558 13.34-.533 4.58-2.464 8.927-5.567 12.534zM96.196 43.17c-.925 3.855-3.173 7.332-6.41 9.914a20.25 20.25 0 01-3.045 2.018c2.635-.714 5.058-1.978 7.08-3.694 2.022-1.716 3.59-3.837 4.585-6.201l-2.21-2.037z" fill="#AFB1B8"/><path d="M95.33 42.602L92.182 39.7c-.06 3.31-1.08 6.545-2.952 9.369-1.873 2.824-4.532 5.133-7.699 6.687h.016c.705 0 1.41-.039 2.111-.116 2.96-1.115 5.575-2.89 7.611-5.164 2.036-2.275 3.43-4.98 4.06-7.873zM78.176 27.469L74.423 24c-3.355 1.197-6.24 3.3-8.278 6.036C64.107 32.77 63.01 36.01 63 39.33c.013 3.669 1.35 7.229 3.801 10.116 2.451 2.888 5.875 4.938 9.731 5.827 3.442-3.87 5.457-8.653 5.753-13.654.295-5-1.144-9.957-4.11-14.15zM104 42.068c-.014-4.353-1.893-8.523-5.227-11.6-3.334-3.078-7.852-4.813-12.567-4.825-2.179-.002-4.34.369-6.371 1.094l22.977 21.21a15.169 15.169 0 001.188-5.88z" fill="#AFB1B8"/></svg>
